static/images/mobile/copyright/wikipedia-wordmark-ps.svg

<?xml version="1.0" encoding="UTF-8"?>
<svg width="85px" height="32px" viewBox="0 0 85 32" version="1.1" xmlns="http://www.w3.org/2000/svg" xmlns:xlink="http://www.w3.org/1999/xlink">
    <title>wikipedia-wordmark-ps</title>
    <g id="Page-1" stroke="none" stroke-width="1" fill="none" fill-rule="evenodd">
        <path d="M82.322827,13.0506208 C83.8102427,14.8335001 84.6558322,16.341298 84.8595998,17.574021 L84.8595998,18.1852913 C84.8595998,20.915632 84.7271482,22.5864374 84.4622731,23.1977077 C83.3008508,25.6835359 82.1801908,27.410374 81.1002864,28.378224 C78.8080196,30.2425887 77.0251489,31.4498459 75.7516724,32 C75.8127973,31.2359023 76.0063673,30.2171185 76.3323781,28.9436485 C79.1034658,27.5479092 81.12575,25.2607412 82.3992353,22.08214 C82.4909182,21.4403051 82.4043232,20.9818535 82.1394459,20.7067807 L81.6809943,20.7526266 C81.3753526,20.8748806 81.0289661,20.9360076 80.6418348,20.9360076 C80.0509336,20.9360076 79.4294766,20.7882856 78.7774593,20.4928372 C78.8283952,19.3212369 79.2766601,18.0477582 80.122254,16.6723968 L82.322827,13.0506208 Z M29.7994274,27.0334294 L29.8164758,27.0506169 C29.8221588,27.056346 29.8292624,27.0635075 29.8377869,27.0721012 L29.9059826,27.1408513 C30.1333021,27.3700184 30.7243356,27.9658542 31.6790841,28.9283673 L29.7230191,30.9761217 L27.9503342,29.096465 L29.7994274,27.0334294 Z M39.8548227,26.2082134 C39.8548217,26.2082134 39.8845118,26.2381454 39.9438929,26.2980096 L40.0552328,26.410255 C40.0775009,26.4327041 40.1016246,26.4570239 40.127604,26.4832146 L40.2810452,26.637903 C40.5936107,26.9530092 41.0780886,27.4414247 41.7344794,28.1031513 L39.7784144,30.1509079 L38.0057306,28.2712512 L39.8548227,26.2082134 Z M50.0324742,23.39637 L50.1045085,23.4689929 C50.116839,23.4814239 50.1307525,23.4954507 50.1462491,23.5110734 L50.2582246,23.6239599 C50.5419967,23.9100401 51.0932986,24.4658221 51.9121309,25.291308 L49.9560659,27.3390645 L48.1833821,25.4594078 L50.0324742,23.39637 Z M45.9063986,23.3810888 L45.9745937,23.4498392 L45.9927082,23.468101 L46.1152477,23.591637 C46.3937147,23.8723681 46.9506504,24.4338307 47.7860553,25.2760267 L45.8299903,27.3237811 L44.0573065,25.4441266 L45.9063986,23.3810888 Z M73.1996184,23.1977077 C73.1996175,23.1977077 73.2124034,23.2105984 73.2379763,23.2363798 L73.3530556,23.3523962 C73.6087891,23.6102103 74.1841953,24.1902927 75.0792751,25.0926457 L73.1232101,27.1404001 L71.3505263,25.2607455 L73.1996184,23.1977077 Z M69.0735428,23.1824265 L69.0905913,23.1996141 C69.1025886,23.2117091 69.1209179,23.2301875 69.1455792,23.2550494 L69.2385592,23.3487856 C69.4998367,23.6121875 70.0713832,24.1883797 70.9531995,25.0773644 L68.9971346,27.1251188 L67.2244507,25.2454621 L69.0735428,23.1824265 Z M29.7994274,22.8156643 L29.8164758,22.8328519 C29.8335246,22.8500395 29.8633602,22.8801178 29.9059826,22.9230868 L30.0722103,23.0906661 C30.3677265,23.3885848 30.9033509,23.928563 31.6790841,24.7106023 L29.7230191,26.7583567 L27.9503342,24.8787 L29.7994274,22.8156643 Z M41.948425,22.8156643 L41.9654724,22.8328519 C41.9825206,22.8500395 42.0123558,22.8801178 42.0549779,22.9230868 L42.2212048,23.0906661 C42.5167202,23.3885848 43.0523451,23.928563 43.8280796,24.7106023 L41.8720146,26.7583567 L40.0993308,24.8787 L41.948425,22.8156643 Z M37.8223495,22.800381 L37.8393979,22.8175686 L37.8489879,22.8272367 L37.9289047,22.9078037 C38.1562242,23.1369723 38.7472577,23.7328107 39.7020062,24.6953189 L37.7459412,26.7430755 L35.9732574,24.8634187 L37.8223495,22.800381 Z M66.1852912,0.779369519 C66.3890328,0.779369519 66.4909111,0.901644225 66.4909263,1.1461317 C66.4909111,1.45178706 66.2871544,2.0070237 65.8796561,2.81184228 L65.1002859,4.37058262 C63.7860428,5.13468679 62.7010396,5.72048694 61.8452721,6.12798526 C60.6430985,6.71889509 58.10633,7.83955513 54.234958,9.48997189 C54.5711534,10.7125233 55.30977,12.1337241 56.4508123,13.7535806 C57.5816569,15.526271 58.4934679,16.7131525 59.1862474,17.3142317 C60.4800931,18.4348961 62.1356152,18.9952261 64.152818,18.9952239 L69.0429804,18.9952239 C69.4708674,18.9952261 70.0057273,18.6692174 70.6475644,18.0171914 C70.3113624,17.4976171 70.1432626,17.181793 70.1432669,17.0697236 C70.1432626,15.806436 70.4183353,14.8793438 70.9684807,14.2884426 C71.2639248,14.2680756 71.4167413,14.2782604 71.4269345,14.3190072 C71.691814,15.1442276 72.2368628,16.1426357 73.0620831,17.3142317 C72.3285522,20.126075 70.9582896,21.5319967 68.9512887,21.5319967 L64.152818,21.5319967 C63.3785314,21.5319967 62.2476825,21.32824 60.7602668,20.9207264 C60.0980497,20.757721 59.4816871,20.2992694 58.9111747,19.5453672 C57.3320543,20.4418991 55.7936918,21.1041075 54.296085,21.5319967 L50.8271256,21.5319967 C50.704865,21.5319967 50.3839486,21.4046482 49.8643743,21.1499512 C49.1104699,20.7526266 48.6367349,20.3502075 48.4431714,19.942694 L48.1833821,20.2330457 C48.1426264,20.4266157 47.8624592,20.7067829 47.3428849,21.0735429 C46.8844289,21.3791781 46.6348263,21.5319967 46.5940793,21.5319967 L42.6972306,21.5319967 C42.57497,21.5319967 42.2540537,21.4046482 41.7344794,21.1499512 C40.980575,20.7526266 40.50684,20.3502075 40.3132765,19.942694 L40.0534871,20.2330457 C40.0127314,20.4266157 39.7325642,20.7067829 39.2129899,21.0735429 C38.7545339,21.3791781 38.5049314,21.5319967 38.4641844,21.5319967 L34.5062086,21.5319967 C34.3839481,21.5319967 34.0630317,21.4046482 33.5434574,21.1499512 C32.789553,20.7526266 32.315818,20.3502075 32.1222545,19.942694 L31.8624652,20.2330457 C31.8217095,20.4266157 31.5415423,20.7067829 31.021968,21.0735429 C30.563512,21.3791781 30.3139094,21.5319967 30.2731624,21.5319967 L26.5444125,21.5319967 C25.6886219,21.5319967 24.9550982,21.0990131 24.3438394,20.2330457 C24.0891328,19.8866614 23.7172771,19.1378558 23.2282713,17.986629 C22.3928596,19.5963096 21.7255567,20.4469914 21.2263609,20.5386809 C20.8430034,20.6202468 19.894801,20.9009772 18.3817519,21.3808753 L18.4145176,21.3791781 C18.9137162,21.3791781 19.341605,21.5931238 19.6981852,22.021013 C20.0649408,22.4590889 20.2483284,22.983762 20.2483284,23.5950323 C20.2483284,24.2063005 20.0649408,24.7258813 19.6981852,25.1537727 C19.341605,25.5816575 18.9137162,25.7956054 18.4145176,25.7956054 C17.8847456,25.7956054 17.441575,25.5816575 17.0850048,25.1537727 C16.738615,24.7258813 16.565425,24.2063005 16.565425,23.5950323 C16.565425,22.983762 16.738615,22.4590889 17.0850048,22.021013 C17.1991659,21.884018 17.3222041,21.7689534 17.4541193,21.6758192 C17.3536054,21.7096046 17.2508301,21.7427157 17.1461318,21.7765048 C15.9541521,22.1228892 15.0270597,22.6781269 14.364852,23.4422159 C14.2018457,23.2588326 14.1203438,22.9990433 14.1203438,22.6628457 C14.1203438,22.4183376 14.1712822,22.0719511 14.2731614,21.6236862 C14.4157901,21.0837318 14.4972928,20.7271586 14.5176695,20.5539642 C15.7503956,19.5148069 16.9729349,18.9188178 18.1852913,18.765997 C20.4673599,18.4094259 21.9395011,17.9509743 22.6017191,17.3906399 C22.6526492,15.7605923 21.9802525,13.1932593 20.5845271,9.68863419 L21.8834766,7.07545313 C22.1177882,7.05509267 22.4387048,7.6969254 22.8462272,9.00095565 C23.2333553,10.2846341 23.7580284,12.5106752 24.4202483,15.6790831 C24.9296287,17.2989526 25.6325889,18.4043336 26.5291309,18.9952239 L29.539638,18.9952239 C29.784144,18.9952261 30.3190039,17.7828744 31.144222,15.3581667 C32.1833772,15.2053546 32.7233315,15.2410115 32.7640872,15.4651374 C32.937275,16.1681037 33.1766887,16.911817 33.4823304,17.6962751 C33.7981479,18.4807419 34.1088753,18.9137234 34.414517,18.9952239 L37.73066,18.9952239 C37.9751659,18.9952261 38.5100258,17.7828744 39.335244,15.3581667 C40.3743991,15.2053546 40.9143535,15.2410115 40.9551092,15.4651374 C41.128297,16.1681037 41.3677107,16.911817 41.6733523,17.6962751 C41.9891699,18.4807419 42.2998973,18.9137234 42.605539,18.9952239 L45.8605549,18.9952239 C46.1050609,18.9952261 46.6399208,17.7828744 47.4651389,15.3581667 C48.5042941,15.2053546 49.0442484,15.2410115 49.0850041,15.4651374 C49.2581919,16.1681037 49.4976056,16.911817 49.8032473,17.6962751 C50.1190648,18.4807419 50.4297923,18.9137234 50.7354339,18.9952239 L52.5386824,18.9952239 C53.8529103,18.8933477 54.9430079,18.4807419 55.8089774,17.7574021 C55.6561565,17.2887659 55.100921,16.3973306 54.1432664,15.083094 C53.2671101,13.8809378 52.6965933,12.8927186 52.4317095,12.1184342 C52.4928366,11.2626644 52.803564,10.2948209 53.3638962,9.21489917 C54.0362913,7.78861703 54.4488993,6.84624144 54.6017202,6.38777459 C55.9159459,6.07196791 57.9178545,5.28241099 60.6074503,4.01910165 C63.5517236,2.68451331 65.4110025,1.60460441 66.1852912,0.779369519 Z M7.36580698,18.9952239 C7.79369386,18.9952261 8.32855483,18.6692174 8.97039151,18.0171914 C8.63418967,17.4976171 8.46609051,17.181793 8.46609351,17.0697236 C8.46609051,15.806436 8.74116187,14.8793438 9.2913085,14.2884426 C9.58675168,14.2680756 9.73956904,14.2782604 9.74976122,14.3190072 C10.0146405,15.1442276 10.5596893,16.1426357 11.3849092,17.3142317 C10.6513796,20.126075 9.28111675,21.5319967 7.27411644,21.5319967 L5.16523391,21.5319967 C3.48423678,21.5319967 2.38395133,21.2925831 1.8643744,20.8137536 C0.886340625,19.8662857 0.397324823,18.4909286 0.397325692,16.687678 L0.397325692,8.435529 C0.397324823,4.59473245 0.264882926,2.34831574 -5.36015676e-13,1.69627496 L2.30754526,3.19744231e-14 C2.71505575,1.0289921 2.96465746,2.59282386 3.05635148,4.69149898 C3.20916536,6.8003978 3.23972887,8.32857137 3.14804202,9.2760262 C3.08691152,10.2235071 3.06144181,11.6905536 3.07163313,13.6771723 C3.12256884,15.9898171 3.23972887,17.3651741 3.42311366,17.8032479 C3.64724197,18.373769 3.86628017,18.6946854 4.08022912,18.765997 C4.60999171,18.9188178 4.9716596,18.9952261 5.16523391,18.9952239 L7.36580698,18.9952239 Z M11.5224451,23.1977077 C11.522439,23.1977077 12.1489903,23.8293515 13.4021011,25.0926457 L11.4460362,27.1404001 L9.67335233,25.2607455 L11.5224451,23.1977077 M7.3963705,23.1824265 C7.39636856,23.1824265 8.02291998,23.8140703 9.27602663,25.0773644 L7.31996171,27.1251188 L5.54727785,25.2454621 L7.3963705,23.1824265" id="wikipedia-wordmark-ps" fill="#000000" fill-rule="nonzero"></path>
    </g>
</svg>

<svg xmlns="http://www.w3.org/2000/svg" width="85" height="32"><path fill="#000" fill-rule="nonzero" d="M82.323 13.05c1.487 1.784 2.333 3.291 2.537 4.524v.611c0 2.73-.133 4.401-.398 5.013-1.161 2.486-2.282 4.212-3.362 5.18-2.292 1.865-4.075 3.072-5.348 3.622.06-.764.254-1.783.58-3.056 2.771-1.396 4.794-3.683 6.067-6.862.092-.642.005-1.1-.26-1.375l-.458.046a2.779 2.779 0 0 1-1.04.183c-.59 0-1.212-.148-1.864-.443.051-1.172.5-2.445 1.345-3.82l2.2-3.622ZM29.799 27.034l.017.018.022.021.068.069 1.773 1.787-1.956 2.048-1.773-1.88 1.85-2.063Zm10.056-.825.089.09.111.112.073.073.153.155 1.453 1.465-1.956 2.048-1.772-1.88 1.849-2.063Zm10.177-2.812.073.073.041.042.112.113 1.654 1.667-1.956 2.048-1.773-1.88 1.85-2.063Zm-4.126-.015.069.069.018.018.122.124 1.671 1.684-1.956 2.048-1.773-1.88 1.85-2.063Zm27.294-.183.038.038.115.116 1.726 1.74-1.956 2.048-1.772-1.88 1.849-2.062Zm-4.126-.016.017.018.055.055.093.094 1.714 1.728-1.956 2.048-1.773-1.88 1.85-2.063Zm-39.275-.366.017.017.09.09.166.168 1.607 1.62-1.956 2.047-1.773-1.88 1.85-2.062Zm12.15 0 .016.017.09.09.166.168 1.607 1.62-1.956 2.047-1.773-1.88 1.85-2.062Zm-4.127-.016.017.018.01.01.08.08 1.773 1.787-1.956 2.048-1.773-1.88 1.85-2.063ZM66.185.78c.204 0 .306.122.306.366 0 .306-.204.861-.611 1.666L65.1 4.37c-1.314.764-2.399 1.35-3.255 1.757-1.202.59-3.739 1.712-7.61 3.362.336 1.223 1.075 2.644 2.216 4.264 1.13 1.772 2.042 2.96 2.735 3.56 1.294 1.12 2.95 1.681 4.967 1.681h4.89c.428 0 .963-.326 1.605-.978-.337-.52-.505-.835-.505-.947 0-1.264.275-2.19.825-2.782.296-.02.449-.01.459.031.265.825.81 1.824 1.635 2.995-.733 2.812-2.104 4.218-4.11 4.218h-4.8c-.773 0-1.904-.204-3.392-.611-.662-.163-1.278-.622-1.849-1.376-1.579.897-3.117 1.56-4.615 1.987h-3.469c-.122 0-.443-.127-.963-.382-.754-.397-1.227-.8-1.42-1.207l-.26.29c-.041.194-.322.474-.841.84-.459.306-.708.459-.749.459h-3.897c-.122 0-.443-.127-.963-.382-.753-.397-1.227-.8-1.42-1.207l-.26.29c-.041.194-.321.474-.841.84-.458.306-.708.459-.749.459h-3.958c-.122 0-.443-.127-.963-.382-.753-.397-1.227-.8-1.42-1.207l-.26.29c-.041.194-.321.474-.841.84-.458.306-.708.459-.749.459h-3.729c-.855 0-1.589-.433-2.2-1.299-.255-.346-.627-1.095-1.116-2.246-.835 1.61-1.502 2.46-2.002 2.552-.383.081-1.331.362-2.844.842l.033-.002c.499 0 .927.214 1.283.642.367.438.55.963.55 1.574 0 .611-.183 1.13-.55 1.559-.356.428-.784.642-1.283.642-.53 0-.973-.214-1.33-.642-.346-.428-.52-.948-.52-1.559s.174-1.136.52-1.574c.114-.137.237-.252.37-.345-.101.034-.204.067-.309.1-1.192.347-2.119.902-2.781 1.666-.163-.183-.245-.443-.245-.78 0-.244.051-.59.153-1.038.143-.54.224-.897.245-1.07 1.232-1.04 2.455-1.635 3.667-1.788 2.282-.357 3.755-.815 4.417-1.375.05-1.63-.622-4.198-2.017-7.702l1.298-2.614c.235-.02.556.622.963 1.926.387 1.284.912 3.51 1.574 6.678.51 1.62 1.213 2.725 2.11 3.316h3.01c.244 0 .779-1.212 1.604-3.637 1.04-.153 1.58-.117 1.62.107.173.703.413 1.447.718 2.231.316.785.627 1.218.933 1.3h3.316c.244 0 .779-1.213 1.604-3.638 1.04-.153 1.58-.117 1.62.107.173.703.413 1.447.718 2.231.316.785.627 1.218.933 1.3h3.255c.244 0 .779-1.213 1.604-3.638 1.04-.153 1.58-.117 1.62.107.173.703.413 1.447.718 2.231.316.785.627 1.218.932 1.3h1.804c1.314-.103 2.404-.515 3.27-1.239-.153-.468-.708-1.36-1.666-2.674-.876-1.202-1.446-2.19-1.711-2.965.06-.855.372-1.823.932-2.903.672-1.426 1.085-2.369 1.238-2.827 1.314-.316 3.316-1.106 6.005-2.369 2.945-1.334 4.804-2.414 5.578-3.24ZM7.365 18.994c.429 0 .964-.326 1.605-.978-.336-.52-.504-.835-.504-.947 0-1.264.275-2.19.825-2.782.296-.02.449-.01.459.031.265.825.81 1.824 1.635 2.995-.734 2.812-2.104 4.218-4.11 4.218h-2.11c-1.68 0-2.781-.24-3.3-.718C.885 19.866.396 18.49.396 16.688V8.436c0-3.841-.132-6.088-.397-6.74L2.308 0c.407 1.029.657 2.593.748 4.691.153 2.11.184 3.638.092 4.585-.061.948-.087 2.415-.076 4.401.05 2.313.168 3.688.351 4.126.224.57.443.892.657.963.53.153.892.23 1.085.23h2.2Zm4.157 4.203 1.88 1.895-1.956 2.047-1.773-1.88 1.85-2.062m-4.127-.016 1.88 1.895-1.956 2.048-1.773-1.88 1.85-2.063"/></svg>
